lib/radiotmp/nrk-media-playlist-remove-expressive.svg

<svg width="24" height="24" viewBox="0 0 24 24" fill="none" xmlns="http://www.w3.org/2000/svg">
<g opacity="0.3">
<path d="M1 6C1 5.44772 1.44772 5 2 5H10C10.5523 5 11 5.44772 11 6C11 6.55228 10.5523 7 10 7H2C1.44772 7 1 6.55228 1 6Z" fill="black"/>
<path d="M1 12C1 11.4477 1.44772 11 2 11H10C10.5523 11 11 11.4477 11 12C11 12.5523 10.5523 13 10 13H2C1.44772 13 1 12.5523 1 12Z" fill="black"/>
<path d="M21 18C21 17.4477 20.5523 17 20 17H2C1.44772 17 1 17.4477 1 18C1 18.5523 1.44772 19 2 19H20C20.5523 19 21 18.5523 21 18Z" fill="black"/>
</g>
<path d="M21.5355 6.87864C21.926 6.48812 21.926 5.85496 21.5355 5.46443C21.145 5.07391 20.5118 5.07391 20.1213 5.46443L18 7.58575L15.8786 5.46443C15.4881 5.07391 14.855 5.07391 14.4644 5.46443C14.0739 5.85496 14.0739 6.48812 14.4644 6.87864L16.5858 8.99996L14.4644 11.1213C14.0739 11.5118 14.0739 12.145 14.4644 12.5355C14.855 12.926 15.4881 12.926 15.8786 12.5355L18 10.4142L20.1213 12.5355C20.5118 12.926 21.145 12.926 21.5355 12.5355C21.926 12.145 21.926 11.5118 21.5355 11.1213L19.4142 8.99996L21.5355 6.87864Z" fill="black"/>
</svg>

<svg xmlns="http://www.w3.org/2000/svg" viewBox="0 0 24 24"><g fill="#000" opacity=".3"><path d="M1 6a1 1 0 0 1 1-1h8a1 1 0 1 1 0 2H2a1 1 0 0 1-1-1ZM1 12a1 1 0 0 1 1-1h8a1 1 0 1 1 0 2H2a1 1 0 0 1-1-1ZM21 18a1 1 0 0 0-1-1H2a1 1 0 1 0 0 2h18a1 1 0 0 0 1-1Z"/></g><path fill="#000" d="M21.535 6.879a1 1 0 0 0-1.414-1.415L18 7.586l-2.121-2.122a1 1 0 1 0-1.415 1.415L16.586 9l-2.122 2.121a1 1 0 0 0 1.415 1.415L18 10.414l2.121 2.122a1 1 0 0 0 1.415-1.415L19.413 9l2.121-2.121Z"/></svg>
